X:2
T:Irish Washerwoman, The
R:jig
Z:id:hn-jig-2
M:6/8
K:G
dc|:BGG DGG|BGB dcB|cAA EAA|cBc edc|
BGG DGG|BGB dcB|cBc Adc|1 BGG Gdc:|2 BGG G2g||
|:gdg gdg|gdg bag|fdf fdf|fdf agf|
egg dgg|cgg ~B3|cBc Adc|1 BGG G2g:|2 BGG G||
